build/category/CommitsSolid.svg

<svg xmlns="http://www.w3.org/2000/svg" fill="none" viewBox="0 0 24 24" focusable="false"><path d="M0 0H24V24H0z"/><path fill="#74767B" d="M12.0001 3.00293C12.3591 3.00293 12.6501 3.29394 12.6501 3.65293L12.6501 8.05253C14.5501 8.36306 16 10.0122 16 12C16 13.9877 14.5501 15.6369 12.6501 15.9474L12.6501 20.3494C12.6501 20.7084 12.3591 20.9994 12.0001 20.9994C11.6411 20.9994 11.3501 20.7084 11.3501 20.3494L11.3501 15.9474C9.45005 15.637 8 13.9878 8 12C8 10.0121 9.45005 8.36295 11.3501 8.0525L11.3501 3.65293C11.3501 3.29394 11.6411 3.00293 12.0001 3.00293Z"/></svg>

<svg xmlns="http://www.w3.org/2000/svg" fill="none" viewBox="0 0 24 24" focusable="false"><path fill="#74767B" d="M12 3c.35 0 .65.29.65.65v4.4a3.999 3.999 0 0 1 0 7.89v4.4c0 .36-.3.65-.65.65-.36 0-.65-.29-.65-.65v-4.4A3.99 3.99 0 0 1 8 12c0-1.99 1.44-3.64 3.35-3.95v-4.4c0-.36.29-.65.65-.65"/></svg>
